icon/fa/earth-americas.svg

<svg xmlns="http://www.w3.org/2000/svg" viewBox="0 0 512 512"><!--! Font Awesome Free 6.1.2 by @fontawesome - https://fontawesome.com License - https://fontawesome.com/license/free (Icons: CC BY 4.0, Fonts: SIL OFL 1.1, Code: MIT License) Copyright 2022 Fonticons, Inc.--><path d="M512 256c0 141.4-114.6 256-256 256S0 397.4 0 256 114.6 0 256 0s256 114.6 256 256zM57.71 192.1l9.36 17.3a64.042 64.042 0 0 0 38.03 29.8l57 16.5c18.1 4.9 29.9 20.6 29.9 38.5v39.9c0 11 6.2 21 16 25 9.8 5.8 16 15.8 16 26.8v39c0 15.6 14.9 26.8 29.9 22.5 16.2-4.6 28.6-18.3 32.7-33.7l2.8-11.2c4.2-16.9 15.2-31.4 30.3-40.1l8.1-4.6c15-8.5 24.2-24.4 24.2-41.7v-8.2c0-12.8-5.1-25-14.1-34l-3.8-3.8c-9-9-21.3-15-34-15h-44c-10.2 0-21.2-2-30.9-7.5l-34.5-19.8c-4.3-2.4-7.6-6.4-9.1-11.1-3.2-9.6 1.1-20 10.1-24.6l6-2.9c6.6-3.3 14.2-3.9 20.4-1.5l24.1 7.7c8.1 2.7 17.1-.4 21.9-7.5 4.7-7.1 4.2-16.4-1.2-22.9l-13.6-16.2c-10-12-9.9-29.5.3-41.3l15.7-18.38c8.8-10.27 10.2-24.96 3.5-36.7l-2.4-4.16c-4.3-.17-6.9-.26-10.4-.26-92.9 0-171.6 60.9-198.29 144.1zm379.89-37.6L412 164.8c-15.7 6.3-23.8 23.7-18.5 39.8l16.9 50.7c3.5 10.4 12 18.3 22.6 21l29.2 7.2c1.2-9 1.8-18.2 1.8-27.5 0-36.8-9.6-71.4-26.4-101.5z"/></svg>

<svg xmlns="http://www.w3.org/2000/svg" viewBox="0 0 512 512" height="1em" width="1em">
<!--! Font Awesome Free 6.1.2 by @fontawesome - https://fontawesome.com License - https://fontawesome.com/license/free (Icons: CC BY 4.0, Fonts: SIL OFL 1.1, Code: MIT License) Copyright 2022 Fonticons, Inc.-->
  <path d="M512 256C512 397.4 397.4 512 256 512C114.6 512 0 397.4 0 256C0 114.6 114.6 0 256 0C397.4 0 512 114.6 512 256zM57.71 192.1L67.07 209.4C75.36 223.9 88.99 234.6 105.1 239.2L162.1 255.7C180.2 260.6 192 276.3 192 294.2V334.1C192 345.1 198.2 355.1 208 359.1C217.8 364.9 224 374.9 224 385.9V424.9C224 440.5 238.9 451.7 253.9 447.4C270.1 442.8 282.5 429.1 286.6 413.7L289.4 402.5C293.6 385.6 304.6 371.1 319.7 362.4L327.8 357.8C342.8 349.3 352 333.4 352 316.1V307.9C352 295.1 346.9 282.9 337.9 273.9L334.1 270.1C325.1 261.1 312.8 255.1 300.1 255.1H256.1C245.9 255.1 234.9 253.1 225.2 247.6L190.7 227.8C186.4 225.4 183.1 221.4 181.6 216.7C178.4 207.1 182.7 196.7 191.7 192.1L197.7 189.2C204.3 185.9 211.9 185.3 218.1 187.7L242.2 195.4C250.3 198.1 259.3 195 264.1 187.9C268.8 180.8 268.3 171.5 262.9 165L249.3 148.8C239.3 136.8 239.4 119.3 249.6 107.5L265.3 89.12C274.1 78.85 275.5 64.16 268.8 52.42L266.4 48.26C262.1 48.09 259.5 48 256 48C163.1 48 84.4 108.9 57.71 192.1L57.71 192.1zM437.6 154.5L412 164.8C396.3 171.1 388.2 188.5 393.5 204.6L410.4 255.3C413.9 265.7 422.4 273.6 433 276.3L462.2 283.5C463.4 274.5 464 265.3 464 256C464 219.2 454.4 184.6 437.6 154.5H437.6z"/>
</svg>
